Numix/16/status/indicator-keyboard-Md.svg

<?xml version="1.0" encoding="UTF-8" standalone="no"?>
<svg
   xmlns:dc="http://purl.org/dc/elements/1.1/"
   xmlns:cc="http://creativecommons.org/ns#"
   xmlns:rdf="http://www.w3.org/1999/02/22-rdf-syntax-ns#"
   xmlns:svg="http://www.w3.org/2000/svg"
   xmlns="http://www.w3.org/2000/svg"
   xmlns:sodipodi="http://sodipodi.sourceforge.net/DTD/sodipodi-0.dtd"
   xmlns:inkscape="http://www.inkscape.org/namespaces/inkscape"
   viewBox="0 0 16 16"
   id="svg2"
   version="1.1"
   inkscape:version="0.91 r13725"
   sodipodi:docname="indicator-keyboard-Md.svg">
  <metadata
     id="metadata13">
    <rdf:RDF>
      <cc:Work
         rdf:about="">
        <dc:format>image/svg+xml</dc:format>
        <dc:type
           rdf:resource="http://purl.org/dc/dcmitype/StillImage" />
      </cc:Work>
    </rdf:RDF>
  </metadata>
  <defs
     id="defs11" />
  <sodipodi:namedview
     pagecolor="#ffffff"
     bordercolor="#666666"
     borderopacity="1"
     objecttolerance="10"
     gridtolerance="10"
     guidetolerance="10"
     inkscape:pageopacity="0"
     inkscape:pageshadow="2"
     inkscape:window-width="640"
     inkscape:window-height="480"
     id="namedview9"
     showgrid="false"
     inkscape:zoom="14.75"
     inkscape:cx="8"
     inkscape:cy="8"
     inkscape:window-x="65"
     inkscape:window-y="24"
     inkscape:window-maximized="0"
     inkscape:current-layer="svg2" />
  <path
     style="fill:#ececec;fill-opacity:1"
     d="M 1.5996094 0 C 0.71320937 2.9605947e-16 0 0.71320937 0 1.5996094 L 0 14.400391 C 2.9605947e-16 15.286791 0.71320937 16 1.5996094 16 L 14.400391 16 C 15.286791 16 16 15.286791 16 14.400391 L 16 1.5996094 C 16 0.71320937 15.286791 0 14.400391 0 L 1.5996094 0 z M 13.800781 4.453125 L 13.800781 11.294922 C 13.626781 11.354922 13.404766 11.410844 13.134766 11.464844 C 12.864766 11.518844 12.523375 11.546875 12.109375 11.546875 C 11.767375 11.546875 11.455828 11.492766 11.173828 11.384766 C 10.897828 11.270766 10.657125 11.108437 10.453125 10.898438 C 10.255125 10.688438 10.100328 10.432812 9.9863281 10.132812 C 9.8783281 9.8328123 9.8242188 9.4932344 9.8242188 9.1152344 C 9.8242188 8.7612344 9.8689844 8.4385313 9.9589844 8.1445312 C 10.054984 7.8445313 10.193047 7.5851406 10.373047 7.3691406 C 10.553047 7.1531406 10.771297 6.9852344 11.029297 6.8652344 C 11.293297 6.7452344 11.593687 6.6855469 11.929688 6.6855469 C 12.235688 6.6855469 12.498703 6.7303125 12.720703 6.8203125 C 12.948703 6.9043125 13.114797 6.9864531 13.216797 7.0644531 L 13.216797 4.5625 L 13.800781 4.453125 z M 2.6386719 5.2011719 L 3.1796875 5.2011719 C 3.3596875 5.5011719 3.5518594 5.8481406 3.7558594 6.2441406 C 3.9598594 6.6341406 4.161375 7.04275 4.359375 7.46875 C 4.563375 7.88875 4.7573594 8.3067031 4.9433594 8.7207031 C 5.1353594 9.1287031 5.3032656 9.4961719 5.4472656 9.8261719 C 5.5912656 9.4961719 5.7573594 9.1287031 5.9433594 8.7207031 C 6.1353594 8.3067031 6.3293437 7.88875 6.5273438 7.46875 C 6.7313438 7.04275 6.9346719 6.6341406 7.1386719 6.2441406 C 7.3426719 5.8481406 7.5348438 5.5011719 7.7148438 5.2011719 L 8.2285156 5.2011719 C 8.3305156 6.1491719 8.4144688 7.1416875 8.4804688 8.1796875 C 8.5524688 9.2176875 8.6159219 10.3035 8.6699219 11.4375 L 8.0488281 11.4375 C 8.0128281 10.4715 7.969875 9.5517812 7.921875 8.6757812 C 7.879875 7.7937813 7.8201875 6.9765625 7.7421875 6.2265625 C 7.6941875 6.3105625 7.6195781 6.4542031 7.5175781 6.6582031 C 7.4155781 6.8622031 7.2980156 7.0991406 7.1660156 7.3691406 C 7.0340156 7.6391406 6.8959531 7.9301875 6.7519531 8.2421875 C 6.6079531 8.5481875 6.4680781 8.8485781 6.3300781 9.1425781 C 6.1920781 9.4305781 6.0651719 9.6973594 5.9511719 9.9433594 C 5.8431719 10.18936 5.7592188 10.387109 5.6992188 10.537109 L 5.1503906 10.537109 C 5.0903906 10.387109 5.0026719 10.18936 4.8886719 9.9433594 C 4.7806719 9.6973594 4.6575312 9.4305781 4.5195312 9.1425781 C 4.3815313 8.8485781 4.2416562 8.5481875 4.0976562 8.2421875 C 3.9536562 7.9301875 3.8155938 7.6391406 3.6835938 7.3691406 C 3.5515937 7.0991406 3.4340312 6.8622031 3.3320312 6.6582031 C 3.2300313 6.4542031 3.1554219 6.3105625 3.1074219 6.2265625 C 3.0294219 6.9765625 2.9659688 7.7937812 2.9179688 8.6757812 C 2.8759687 9.5517813 2.8367813 10.4715 2.8007812 11.4375 L 2.1992188 11.4375 C 2.2532188 10.3035 2.3129062 9.2176875 2.3789062 8.1796875 C 2.4509062 7.1416875 2.5366719 6.1491719 2.6386719 5.2011719 z M 11.984375 7.2167969 C 11.696375 7.2167969 11.451906 7.2671406 11.253906 7.3691406 C 11.061906 7.4711406 10.907109 7.6092031 10.787109 7.7832031 C 10.667109 7.9512031 10.579391 8.1527188 10.525391 8.3867188 C 10.471391 8.6147187 10.445312 8.8572344 10.445312 9.1152344 C 10.445312 9.7272346 10.598297 10.199297 10.904297 10.529297 C 11.210297 10.853297 11.615141 11.015625 12.119141 11.015625 C 12.407141 11.015625 12.6385 11.002516 12.8125 10.978516 C 12.9925 10.948516 13.126797 10.918672 13.216797 10.888672 L 13.216797 7.6308594 C 13.162797 7.5888594 13.093766 7.5440938 13.009766 7.4960938 C 12.931766 7.4480938 12.838469 7.4033281 12.730469 7.3613281 C 12.622469 7.3193281 12.504906 7.2857188 12.378906 7.2617188 C 12.252906 7.2317188 12.122375 7.2167969 11.984375 7.2167969 z "
     id="path4" />
</svg>

<svg xmlns="http://www.w3.org/2000/svg" viewBox="0 0 16 16">
 <path d="m 1.6 0 c -0.886 0 -1.6 0.713 -1.6 1.6 l 0 12.801 c 0 0.886 0.713 1.6 1.6 1.6 l 12.801 0 c 0.886 0 1.6 -0.713 1.6 -1.6 l 0 -12.801 c 0 -0.886 -0.713 -1.6 -1.6 -1.6 l -12.801 0 z m 12.201 4.453 l 0 6.842 c -0.174 0.06 -0.396 0.116 -0.666 0.17 c -0.27 0.054 -0.611 0.082 -1.025 0.082 c -0.342 0 -0.654 -0.054 -0.936 -0.162 c -0.276 -0.114 -0.517 -0.276 -0.721 -0.486 c -0.198 -0.21 -0.353 -0.466 -0.467 -0.766 c -0.108 -0.3 -0.162 -0.64 -0.162 -1.018 c 0 -0.354 0.045 -0.677 0.135 -0.971 c 0.096 -0.3 0.234 -0.559 0.414 -0.775 c 0.18 -0.216 0.398 -0.384 0.656 -0.504 c 0.264 -0.12 0.564 -0.18 0.9 -0.18 c 0.306 0 0.569 0.045 0.791 0.135 c 0.228 0.084 0.394 0.166 0.496 0.244 l 0 -2.502 l 0.584 -0.109 z m -11.162 0.748 l 0.541 0 c 0.18 0.3 0.372 0.647 0.576 1.043 c 0.204 0.39 0.406 0.799 0.604 1.225 c 0.204 0.42 0.398 0.838 0.584 1.252 c 0.192 0.408 0.36 0.775 0.504 1.105 c 0.144 -0.33 0.31 -0.697 0.496 -1.105 c 0.192 -0.414 0.386 -0.832 0.584 -1.252 c 0.204 -0.426 0.407 -0.835 0.611 -1.225 c 0.204 -0.396 0.396 -0.743 0.576 -1.043 l 0.514 0 c 0.102 0.948 0.186 1.941 0.252 2.979 c 0.072 1.038 0.135 2.124 0.189 3.258 l -0.621 0 c -0.036 -0.966 -0.079 -1.886 -0.127 -2.762 c -0.042 -0.882 -0.102 -1.699 -0.18 -2.449 c -0.048 0.084 -0.123 0.228 -0.225 0.432 c -0.102 0.204 -0.22 0.441 -0.352 0.711 c -0.132 0.27 -0.27 0.561 -0.414 0.873 c -0.144 0.306 -0.284 0.606 -0.422 0.9 c -0.138 0.288 -0.265 0.555 -0.379 0.801 c -0.108 0.246 -0.192 0.444 -0.252 0.594 l -0.549 0 c -0.06 -0.15 -0.148 -0.348 -0.262 -0.594 c -0.108 -0.246 -0.231 -0.513 -0.369 -0.801 c -0.138 -0.294 -0.278 -0.594 -0.422 -0.9 c -0.144 -0.312 -0.282 -0.603 -0.414 -0.873 c -0.132 -0.27 -0.25 -0.507 -0.352 -0.711 c -0.102 -0.204 -0.177 -0.348 -0.225 -0.432 c -0.078 0.75 -0.141 1.567 -0.189 2.449 c -0.042 0.876 -0.081 1.796 -0.117 2.762 l -0.602 0 c 0.054 -1.134 0.114 -2.22 0.18 -3.258 c 0.072 -1.038 0.158 -2.031 0.26 -2.979 z m 9.346 2.02 c -0.288 0 -0.532 0.05 -0.73 0.152 c -0.192 0.102 -0.347 0.24 -0.467 0.414 c -0.12 0.168 -0.208 0.37 -0.262 0.604 c -0.054 0.228 -0.08 0.471 -0.08 0.729 c 0 0.612 0.153 1.084 0.459 1.414 c 0.306 0.324 0.711 0.486 1.215 0.486 c 0.288 0 0.519 -0.013 0.693 -0.037 c 0.18 -0.03 0.314 -0.06 0.404 -0.09 l 0 -3.258 c -0.054 -0.042 -0.123 -0.087 -0.207 -0.135 c -0.078 -0.048 -0.171 -0.093 -0.279 -0.135 c -0.108 -0.042 -0.226 -0.076 -0.352 -0.1 c -0.126 -0.03 -0.257 -0.045 -0.395 -0.045 z" style="fill:#ececec;fill-opacity:1"/>
</svg>
